X:290
T: DER SPERLING DER GIBT DER BRAUT DEN TRAURING
N: E0163C
O: Europa, Mitteleuropa, Deutschland, Danzig, Neuhof
R: erzaehlendes Volks - Lied, Sage, Tier - Maerchen
M: 2/4
L: 1/8
K: C
G | G2AB | c2E
A | GFED | E2C
C | G2AB | c2E
A | GEFD | CCC
C | D2E^F | G2G
G | dcBA | GFE
C | GGAA | BBc
A | GEFD | CCC

